!!!COM: Macque, Giovanni de
!!!CDT:
!!!PTL: Il secondo libro de madrigali a cinque voci
!!!PPP: Venice
!!!PPR: Vincenzi & Amadino
!!!PDT: 1587
!!!RISM: M 89
!!!rime: 284
!!!OTL:	Questa vostra pietate, Rime 284
!!!AGN: Madrigal
!!!SCT: Trm0284c
!!!SCA: Trm0284c
!!!voices: 5
**kern	**text	**kern	**text	**kern	**text	**kern	**text	**kern	**text
*part5	*part5	*part4	*part4	*part3	*part3	*part2	*part2	*part1	*part1
*staff5	*staff5	*staff4	*staff4	*staff3	*staff3	*staff2	*staff2	*staff1	*staff1
*I"Basso	*	*I"Quinto	*	*I"Tenore	*	*I"Alto	*	*I"Canto	*
*I'B	*	*I'Q	*	*I'T	*	*I'A	*	*I'C	*
*oclefF4	*	*oclefC4	*	*oclefC4	*	*oclefC3	*	*oclefC1	*

*clefF4	*	*clefGv2	*	*clefGv2	*	*clefG2	*	*clefG2	*
*k[b-]	*	*k[b-]	*	*k[b-]	*	*k[b-]	*	*k[b-]	*
*omet(C)	*	*omet(C)	*	*omet(C)	*	*omet(C)	*	*omet(C)	*
*M4/2	*	*M4/2	*	*M4/2	*	*M4/2	*	*M4/2	*
=1	=1	=1	=1	=1	=1	=1	=1	=1	=1
1F	Que-	2r	.	1c	Que-	1a	Que-	1cc	Que-
.	.	2f	Que-	.	.	.	.	.	.
2C	-sta	2e	-sta	2c	-sta	2g	-sta	2cc	-sta
4D	vo-	4d	vo-	4F	vo-	4f	vo-	4a	vo-
[4BB-y	-stra	[4d	-stra	[4F	-stra	[4f	-stra	[4b-y	-stra
=2	=2	=2	=2	=2	=2	=2	=2	=2	=2
4BB-]	.	4d]	.	4F]	.	4f]	.	4b-]	.
4FF	pie-	4c	pie-	4F	pie-	4f	pie-	4a	pie-
2C	-ta-	2c	-ta-	2G	-ta-	2e	-ta-	2g	-ta-
1C	-te	2c	-te	2G	-te	2e	-te	2g	-te
.	.	2c	Non	2G	Non	2e	Non	2cc	Non
=3	=3	=3	=3	=3	=3	=3	=3	=3	=3
0r	.	4.F	re-	4.A	re-	4.f	re-	4.cc	re-
.	.	8F	-fri-	8A	-fri-	8f	-fri-	8cc	-fri-
.	.	4G	-ge-	4B-y	-ge-	4d	-ge-	4b-y	-ge-
.	.	4B-y	-rio al	4d	-rio al	4d	-rio al	4g	-rio al
.	.	2A	co-	2c#X	co-	2e	co-	2a	co-
.	.	2A	-re,	2c#i	-re,	2e	-re,	2a	-re,
=4	=4	=4	=4	=4	=4	=4	=4	=4	=4
2F	Non	2A	Non	4r	.	2f	Non	2cc	Non
.	.	.	.	4A	Non	.	.	.	.
4.BB-y	re-	4.F	re-	4.B-y	re-	4.f	re-	4.dd	re-
8BB-y	-fri-	8F	-fri-	8B-y	-fri-	8f	-fri-	8dd	-fri-
4C	-ge-	4c	-ge-	4G	-ge-	4e	-ge-	4cc	-ge-
4E-X	-rio al	4G	-rio al	4G	-rio al	4g	-rio al	4b-y	-rio al
2D	co-	2A	co-	2d	co-	2f#X	co-	2dd	co-
=5	=5	=5	=5	=5	=5	=5	=5	=5	=5
2D	-re	2A	-re	2d	-re	2f#X	-re	2a	-re
2.C	Ma	2.c	Ma	2.e	Ma	2.g	Ma	4r	.
.	.	.	.	.	.	.	.	2cc	Ma
4AA	giun-	4c	giun-	4e	giun-	4a	giun-	4cc	giun-
2D	-ge e-	2d	-ge e-	2f	-ge e-	2fnXi	-ge e-	2a	-ge e-
=6	=6	=6	=6	=6	=6	=6	=6	=6	=6
4BB-y	-sca a	4d	-sca a	4d	-sca a	4f	-sca a	4b-y	-sca a
4C	l'ar-	4G	l'ar-	4c	l'ar-	4e	l'ar-	4g	l'ar-
2GG	-do-	2G	-do-	2BnX	-do-	2d	-do-	2g	-do-
1C	-re;	2G	-re;	1c	-re;	1e	-re;	1g	-re;
.	.	[2c	Dun-	.	.	.	.	.	.
=7	=7	=7	=7	=7	=7	=7	=7	=7	=7
1F	Dun-	2c]	.	1c	Dun-	2r	.	1.a	Dun-
.	.	2A	-que	.	.	1f	Dun-	.	.
2.D	-que	2r	.	2d	-que	.	.	.	.
.	.	4r	.	2A	d'es-	4d	-que	2f#X	-que
4D	d'es-	4d	d'es-	.	.	4d	d'es-	.	.
=8	=8	=8	=8	=8	=8	=8	=8	=8	=8
4C	-ser	4G	-ser	4c	-ser	4e	-ser	0r	.
4BB-y	pie-	4B-y	pie-	4d	pie-	4f	pie-	.	.
1E-X	-to-	1B-y	-to-	1e-X	-to-	1g	-to-	.	.
2E-i	-s'ho-	2B-y	-s'ho-	2e-i	-s'ho-	2g	-s'ho-	.	.
=9	=9	=9	=9	=9	=9	=9	=9	=9	=9
4BB-y	-mai	4B-y	-mai	4d	-mai	4f	-mai	1r	.
4D	ces-	4A	ces-	4d	ces-	4f	ces-	.	.
2AA	-sa-	2A	-sa-	2c#X	-sa-	2e	-sa-	.	.
1AA	-te	2A	-te,	2c#i	-te,	2e	-te,	2r	.
.	.	2A	d'es-	4r	.	2c#X	d'es-	2e	d'es-
.	.	.	.	4A	d'es-	.	.	.	.
=10	=10	=10	=10	=10	=10	=10	=10	=10	=10
0r	.	4G	-ser	4BnX	-ser	4d	-ser	4g	-er
.	.	4F	pie-	4c	pie-	4f	pie-	4a	pie-
.	.	1B-y	-to-	1d	-to-	1f	-to-	1b-y	-to-
.	.	2B-y	-s'ho-	2d	-s'ho-	2f	-s'ho-	2b-y	-s'ho-
=11	=11	=11	=11	=11	=11	=11	=11	=11	=11
1r	.	4E-X	-mai	4e-X	-mai	4g	-mai	4b-y	-mai
.	.	4G	ces-	4d	ces-	4g	ces-	4b-y	ces-
.	.	2D	-sa-	2d	-sa-	2f#X	-sa-	2a	-sa-
2r	.	1D	-te	2d	-te	2f#i	-te	2a	-te
[2D	In	.	.	[2f	In	[2a	In	[2dd	In
=12	=12	=12	=12	=12	=12	=12	=12	=12	=12
4D]	.	2r	.	2f]	.	4a]	.	4dd]	.
4D	co-	.	.	.	.	4a	co-	4dd	co-
2AA	-sì	2.A	In	2e	co-	2a	-sì	2cc	-sì
2E	stra-	.	.	1e	-sì	4e	stra-	2bnX	stra-
.	.	4A	co-	.	.	4f	.	.	.
2E	-na	2G	-sì	.	.	4g	.	2cc	-na
.	.	.	.	.	.	4e	.	.	.
=13	=13	=13	=13	=13	=13	=13	=13	=13	=13
0D	gui-	2F#X	stra-	2A	stra-	4a	.	0dd	gui-
.	.	.	.	.	.	4a	-na	.	.
.	.	2G	-na	2d	-na	2.g	gui-	.	.
.	.	1A	gui-	1d	gui-	.	.	.	.
.	.	.	.	.	.	8f#XL	.	.	.
.	.	.	.	.	.	8eJ	.	.	.
.	.	.	.	.	.	2f#X	.	.	.
=14	=14	=14	=14	=14	=14	=14	=14	=14	=14
2GG	-sa	2G	-sa	4d	-sa	2g	-sa	4bnX	-sa
.	.	.	.	8G	Che	.	.	8b-i	Che
.	.	.	.	8A	ne	.	.	8cc	ne
2r	.	4r	.	2B-y	sia	4r	.	2dd	sia
.	.	8d	Che	.	.	8f	Che	.	.
.	.	8e	ne	.	.	8g	ne	.	.
1r	.	4f	sia	4A	l'al-	4a	sia	2cc	l'al-
.	.	2e	l'al-	4c	-ma uc-	2g	l'al-	.	.
.	.	.	.	[2G	-ci-	.	.	4bnX	-ma uc-
.	.	4e	-ma uc-	.	.	4g	-ma uc-	[4cc	-ci-
=15	=15	=15	=15	=15	=15	=15	=15	=15	=15
2r	.	2d	-ci-	2G]	.	2g	-ci-	4cc]	.
.	.	.	.	.	.	.	.	4bnX	.
4r	.	2e	-sa;	2C	-sa,	4g	-sa,	2cc	-sa,
8C	Che	.	.	.	.	8e	Che	.	.
8D	ne	.	.	.	.	8f	ne	.	.
2E-X	sia	1r	.	4r	.	2g	sia	4r	.
.	.	.	.	8G	Che	.	.	8b-i	Che
.	.	.	.	8A	ne	.	.	8cc	ne
4D	l'al-	.	.	4B-y	sia	2f	l'al-	4dd	sia
4F	-ma uc-	.	.	[4A	l'al-	.	.	[4cc	l'al-
=16	=16	=16	=16	=16	=16	=16	=16	=16	=16
1C	-ci-	1r	.	4A]	.	4e	-ma uc-	4cc]	.
.	.	.	.	4A	-ma uc-	2f	-ci-	4cc	-ma uc-
.	.	.	.	2G	-ci-	.	.	2cc	-ci-
.	.	.	.	.	.	4e	.	.	.
2FF	-sa;	2r	.	1A	-sa;	4f	-sa;	1cc	-sa;
.	.	.	.	.	.	4c	Per-	.	.
4r	.	2A	Per-	.	.	4f	-ch'el-	.	.
4F	Per-	.	.	.	.	4f	-la	.	.
=17	=17	=17	=17	=17	=17	=17	=17	=17	=17
4A	-ch'el-	4c	-ch'el-	4r	.	4.e	vi	1r	.
4A	-la	4c	-la	4c	Per-	.	.	.	.
.	.	.	.	.	.	8f	de-	.	.
4.G	vi	4.B-y	vi	4e-X	-ch'el-	2g	-si-	.	.
.	.	.	.	4e-i	-la	.	.	.	.
8A	de-	8c	de-	.	.	.	.	.	.
2B-y	-si-	2d	-si-	4.d	vi	2f	-a,	4r	.
.	.	.	.	.	.	.	.	4f	Per-
.	.	.	.	8enXi	de-	.	.	.	.
2F	-a	4c	-a,	4f	-si-	4r	.	4a	-ch'el-
.	.	4A	Per-	4c	-a	4c	Per-	4a	-la
=18	=18	=18	=18	=18	=18	=18	=18	=18	=18
0r	.	4c	-ch'el-	0r	.	4e-X	-ch'el-	4.g	vi
.	.	4c	-la	.	.	4e-i	-la	.	.
.	.	.	.	.	.	.	.	8a	de-
.	.	4.B-y	vi	.	.	4.d	vi	1b-y	-si-
.	.	8c	de-	.	.	8enXi	de-	.	.
.	.	2d	-si-	.	.	4f	-si-	.	.
.	.	.	.	.	.	2g	.	.	.
.	.	2d	-a	.	.	.	.	2a	-a
.	.	.	.	.	.	4f#X	-a	.	.
=19	=19	=19	=19	=19	=19	=19	=19	=19	=19
0r	.	2r	.	0r	.	1r	.	2r	.
.	.	2.B-y	O in	.	.	.	.	2.dd	O in
.	.	.	.	.	.	2.fnXi	O in	.	.
.	.	4A	e-	.	.	.	.	4cc	e-
.	.	[2G	-stre-	.	.	.	.	[2b-y	-stre-
.	.	.	.	.	.	4e	e-	.	.
=20	=20	=20	=20	=20	=20	=20	=20	=20	=20
0r	.	4G]	.	0r	.	2d	-stre-	4b-]	.
.	.	2F	-mo	.	.	.	.	2a	-mo
.	.	.	.	.	.	2.c	-mo	.	.
.	.	4E	cru-	.	.	.	.	4g	cru-
.	.	4D	-del	.	.	.	.	4f#X	-del
.	.	4d	o in	.	.	4B-y	cru-	4g	o in
.	.	[2c	tut-	.	.	4A	-del	[2e	tut-
.	.	.	.	.	.	4a	o in	.	.
=21	=21	=21	=21	=21	=21	=21	=21	=21	=21
1r	.	4c]	.	1r	.	4g	tut-	4e]	.
.	.	4A	-to	.	.	4f	-to	4a	-to
.	.	2c	pi-	.	.	2e	pi-	2g	pi-
2r	.	1F	-a,	2.c	O in	1f	-a,	2a	-a,
[2F	O in	.	.	.	.	.	.	[2cc	O in
.	.	.	.	4B-y	e-	.	.	.	.
=22	=22	=22	=22	=22	=22	=22	=22	=22	=22
4F]	.	1r	.	2.A	-stre-	0r	.	2cc]	.
4E	e-	.	.	.	.	.	.	.	.
1D	-stre-	.	.	.	.	.	.	2b-y	e-
.	.	.	.	2G	-mo	.	.	.	.
.	.	4r	.	.	.	.	.	[1a	-stre-
.	.	2f	O in	4F	cru-	.	.	.	.
[2C	-mo	.	.	2c	-del	.	.	.	.
.	.	4e	e-	.	.	.	.	.	.
=23	=23	=23	=23	=23	=23	=23	=23	=23	=23
2C]	.	1d	-stre-	0r	.	2r	.	2a]	.
2BB-X	cru-	.	.	.	.	2d	o in	1g	-mo
[1AA	-del	2e	-mo	.	.	2c#X	tut-	.	.
.	.	2d	cru-	.	.	2d	-to	2f	cru-
=24	=24	=24	=24	=24	=24	=24	=24	=24	=24
2AA]	.	2c#X	-del	2r	.	2.e	pi-	2e	-del
2A	o in	2r	.	2c#X	o in	.	.	4r	.
.	.	.	.	.	.	4f	.	4a	o in
4G	tut-	1r	.	4d	tut-	1g	.	4bnX	tut-
4E	-to	.	.	4e	-to	.	.	4cc	-to
2G	pi-	.	.	2d	pi-	.	.	2bnX	pi-
=25	=25	=25	=25	=25	=25	=25	=25	=25	=25
1C	-a,	2r	.	1e	-a,	2g	-a,	1cc	-a,
.	.	2c	o in	.	.	2g	o in	.	.
2r	.	2A	tut-	2r	.	1f	tut-	2r	.
2D	o in	2F	-to	2d	o in	.	.	2a	o in
=26	=26	=26	=26	=26	=26	=26	=26	=26	=26
2C	tut-	0c	pi-	2G	tut-	2e	-to	2cc	tut-
2AA	-to	.	.	2A	-to	2.f	pi-	2cc	-to
1C	pi-	.	.	1G	pi-	.	.	1cc	pi-
.	.	.	.	.	.	8eL	.	.	.
.	.	.	.	.	.	8dJ	.	.	.
.	.	.	.	.	.	2e	.	.	.
=27	=27	=27	=27	=27	=27	=27	=27	=27	=27
0FFl	-a.	0cl	-a.	0Fl	-a.	0fl	-a.	0al	-a.
==	==	==	==	==	==	==	==	==	==
*-	*-	*-	*-	*-	*-	*-	*-	*-	*-
!!!system-decoration: [(s1)(s2)(s3)(s4)(s5)]
!!!RDF**kern: i = editorial accidental
!!!RDF**kern: l = terminal long
!!!ENC: Emiliano Ricciardi
!!!END: 2017
!!!EED: Deutsch, Catherine
!!!EEV: 2018/10/28
!!!YEC: Copyright 2018 Emiliano Ricciardi, All Rights Reserved
!!!ONB: Translated from MusicXML on 2018/10/28 and edited by Craig Stuart Sapp
